!!!!SEGMENT: pl-wn--mus-iii-128-848-cim_badarzewska-tekla--mazure.krn
!!!cenid: 18xx:3537
!!!COM: Bądarzewska, Tekla
!!!COM-rismid: pe30005936
!!!CDT:
!!!CNT:
!!!OTL: Mazure
!!!PDT:
!!!AGN:
!!!SMS-siglum: PL-Wn
!!!SMS-shelfmark: Mus.III.128.848 Cim.
!!!SMS-shelfwork: W
!!!SMS-variant:
!!!SMS-altvar:
!!!NIFC-rismid:
!!!URL-scan: https://polona.pl/item/oeuvres-de-thecla-badarzewska-pour-le-pianoforte-3-douce-reverie,ODExMjU1MzU/2/#info:metadata
!!!ONB-nifc:
**kern	**kern	**dynam
*part2	*part1	*part1
*staff2	*staff1	*
*Iempty	*Ipiano	*
*	*I"Piano	*
*I'P-no	*I'P-no	*
*clefF4	*clefG2	*
*k[b-e-a-]	*k[b-e-a-]	*
*E-:	*E-:	*
*M3/4	*M3/4	*
=1	=1	=1
!	!LO:TX:a:t=Moderato.	!
4EE-/ 4E-	8.gg\L 8.ggg	.
.	16gg\K 16ggg	.
4B-\ 4e- 4g	8.ff\ 8.fff	.
.	16ee-\K 16eee-	.
4B-\ 4e- 4g	8.dd\ 8.ddd	.
.	16cc\Jk 16ccc	.
=2	=2	=2
4AAA-/ 4AA-	8dd\L 8ddd	.
.	8cc\J 8ccc	.
4A-\ 4c 4f	4.a-\ 4.aa-	.
4A-\ 4c 4f	.	.
.	8f\ 8ff	.
=3	=3	=3
4BBB-/ 4BB-	(32d\LLL	<
.	32f\	.
.	32a-\	.
.	32b-\	.
.	32dd\	.
.	32ff\	.
.	32aa-\	.
.	32bb-\JJJ)	.
4F\ 4A- 4B- 4d	(8.ddd\L	[
.	16ccc\Jk	.
4F\ 4A- 4B- 4d	8.bb-\L	>
.	16aan\Jk	.
=4	=4	=4
4EE-/ 4E-	8.ccc\L	.
.	16bb-\Jk	.
4G\ 4B- 4e-	4.gg\)	]
4G\ 4B- 4e-	.	.
.	(8bb-\	.
=5	=5	=5
4EE-/ 4E-	8.ggg\L	.
.	16eee-\K	.
4B-\ 4e- 4g	8.bb-\	.
.	16gg\K	.
4B-\ 4e- 4g	8.ee-\	.
.	16b-\Jk)	.
=6	=6	=6
4AAA-/ 4AA-	(8dd\L	.
.	8cc\J	.
4A-\ 4c 4f	4.a-/	.
4A-\ 4c 4f	.	.
.	8f/)	.
=7	=7	=7
4BBB-/ 4BB-	(32d\LLL	<
.	32f\	.
.	32a-\	.
.	32b-\	.
.	32dd\	.
.	32ff\	.
.	32aa-\	.
.	32bb-\JJJ)	.
4F\ 4A- 4B- 4d	(8.ddd\L	[ >
.	16ccc\Jk	.
4F\ 4A- 4B- 4d	8.bb-\L	.
.	16dd\Jk	.
=8	=8	=8
4G\ 4B- 4e-	4ee-\)	.
4EE-'/ 4GG 4BB- 4E-	4ee-\ 4gg 4bb- 4eee-	]
4r	4r	.
=9:|!|:	=9:|!|:	=9:|!|:
4BBB-/ 4BB-	8.f\L 8.b- 8.ff	.
.	16f\Jk 16b- 16ff	.
4F\ 4A- 4B- 4d	4.b-^\ 4.dd 4.bb-	.
4F\ 4A- 4B- 4d	.	.
.	8f\ 8b- 8ff	.
=10	=10	=10
4EE-/ 4E-	8.g\L 8.b- 8.gg	.
.	16g\Jk 16b- 16gg	.
4G\ 4B- 4e-	4.b-^\ 4.ee- 4.bb-	.
4G\ 4B- 4e-	.	.
.	8g\ 8b- 8gg	.
=11	=11	=11
4BBB-/ 4BB-	8.a-\L 8.cc 8.aa-	.
.	16a-\Jk 16cc 16aa-	.
4F\ 4A- 4B- 4d	4.dd^\ 4.ff 4.ddd	.
4F\ 4A- 4B- 4d	.	.
.	8cc\ 8ee- 8ccc	.
=12	=12	=12
4EE-/ 4E-	4cc\ 4ee- 4ccc	.
4G\ 4B- 4e-	4b-^\ 4ee- 4bb-	.
4r	4r	.
=13	=13	=13
4EE-/ 4E-	8.gg^\L 8.bb- 8.ggg	.
.	16gg\Jk 16bb- 16ggg	.
4G\ 4B- 4e-	4.ff\ 4.aa- 4.fff	.
4G\ 4B- 4e-	.	.
.	8ee-\ 8gg 8eee-	.
=14	=14	=14
4AAA-/ 4AA-	8.dd^\L 8.ff 8.ddd	.
.	16dd\Jk 16ff 16ddd	.
4A-\ 4c 4f	4.cc\ 4.ee- 4.ccc	.
4A-\ 4c 4f	.	.
.	8f\ 8a- 8ff	.
=15	=15	=15
4BBB-/ 4BB-	8.b-^\L 8.dd 8.bb-	.
.	16b-\Jk 16dd 16bb-	.
4F\ 4A- 4B- 4d	4..a-\ 4..cc 4..aa-	.
4F\ 4A- 4B- 4d	.	.
.	16d/ 16f 16dd	.
=16	=16	=16
(4E-\ 4G 4B-	(4e-/ 4g 4ee-	.
4EE-'/) 4E-	4ee-'\) 4gg 4bb- 4eee-	.
4r	4r	.
=17:|!|:	=17:|!|:	=17:|!|:
4EE-/ 4E-	8.gg\L 8.ggg	.
.	16gg\K 16ggg	.
4B-\ 4e- 4g	8.ff\ 8.fff	.
.	16ee-\K 16eee-	.
4B-\ 4e- 4g	8.dd\ 8.ddd	.
.	16cc\Jk 16ccc	.
=18	=18	=18
4AAA-/ 4AA-	8dd\L 8ddd	.
.	8cc\J 8ccc	.
4A-\ 4c 4f	4.a-\ 4.aa-	.
4A-\ 4c 4f	.	.
.	8f\ 8ff	.
=19	=19	=19
4BBB-/ 4BB-	(32d\LLL	<
.	32f\	.
.	32a-\	.
.	32b-\	.
.	32dd\	.
.	32ff\	.
.	32aa-\	.
.	32bb-\JJJ)	.
4F\ 4A- 4B- 4d	(8.ddd\L	[
.	16ccc\Jk	.
4F\ 4A- 4B- 4d	8.bb-\L	>
.	16aan\Jk	.
=20	=20	=20
4EE-/ 4E-	8.ccc\L	.
.	16bb-\Jk	.
4G\ 4B- 4e-	4.gg\)	]
4G\ 4B- 4e-	.	.
.	(8bb-\	.
=21	=21	=21
4EE-/ 4E-	8.ggg\L	.
.	16eee-\K	.
4B-\ 4e- 4g	8.bb-\	.
.	16gg\K	.
4B-\ 4e- 4g	8.ee-\	.
.	16b-\Jk)	.
=22	=22	=22
4AAA-/ 4AA-	(8dd\L	.
.	8cc\J	.
4A-\ 4c 4f	4.a-/	.
4A-\ 4c 4f	.	.
.	8f/)	.
=23	=23	=23
4BBB-/ 4BB-	(32d\LLL	<
.	32f\	.
.	32a-\	.
.	32b-\	.
.	32dd\	.
.	32ff\	.
.	32aa-\	.
.	32bb-\JJJ)	.
4F\ 4A- 4B- 4d	(8.ddd\L	[ >
.	16ccc\Jk	.
4F\ 4A- 4B- 4d	8.bb-\L	.
.	16dd\Jk	.
=24	=24	=24
4G\ 4B- 4e-	4ee-\)	.
4EE-/ 4GG 4BB- 4E-	4ee-\ 4gg 4bb- 4eee-	]
4r	4r	.
*	*clefF4	*
=25:|!|:	=25:|!|:	=25:|!|:
4BBB-/ 4BB-	4F\	.
4A-\ 4d	4.B-^\	.
4r	.	.
.	8F\	<
=26	=26	=26
4EE-/ 4E-	8.G\L	.
.	16G\Jk	.
4G\ 4e-	4.B-^\	.
4r	.	.
.	8G\	.
=27	=27	=27
4BBB-/ 4BB-	8.A-\L	.
.	16A-\Jk	.
4A-\ 4f	4.d^\	.
4r	.	.
.	8c\	[[
=28	=28	=28
4EE-/ 4E-	4c\	.
4G\ 4e-	4B-^\	.
4r	4r	.
=29	=29	=29
4EE-/ 4E-	8.g^\L	.
.	16g\Jk	.
4G\ 4B- 4e-	4.f\	.
4G\ 4B- 4e-	.	.
.	8e-\	.
=30	=30	=30
4AAA-/ 4AA-	8.f^\L	>
.	16f\Jk	.
4A-\ 4c 4f	4.e-\	.
4A-\ 4c 4f	.	.
.	8F\	.
=31	=31	=31
4BBB-/ 4BB-	8.c^\L	.
.	16c\Jk	.
4A-\ 4d	4.B-\	.
4A-\ 4d	.	.
.	8D\	.
=32	=32	=32
4G\ 4B-	4E-\	.
4EE-/ 4E-	4G\ 4B- 4e-	.
4r	4r	]
*	*clefG2	*
=33:|!|:	=33:|!|:	=33:|!|:
*	*8va	*
!	!LO:TX:b:t=brillante.	!
4EE-/ 4E-	4ggg:\ [4gggg:	<
4B-\ 4e- 4g	16gggg\LL]	.
.	(16ffff#X\	.
.	16ffffn\	.
.	16eeeen\JJ	.
4B-\ 4e- 4g	16eeee-X\LL	.
.	16dddd\	.
.	16cccc#X\	.
.	16ccccn\JJ)	[[
=34	=34	=34
4AAA-/ 4AA-	(8.dddd\L	>
.	16cccc\Jk	.
4A-\ 4c 4f	16aaa-\LL	.
.	16fff\	.
*	*X8va	*
.	16ccc\	.
.	16aa-\JJ	.
4A-\ 4c 4f	16ff\LL	.
.	16cc\	.
.	16a-\	.
.	16f\JJ)	]]
=35	=35	=35
4BBB-/ 4BB-	(32d\LLL	<
.	32f\	.
.	32a-\	.
.	32b-\	.
.	32dd\	.
.	32ff\	.
.	32aa-\	.
.	32bb-\JJJ)	.
4F\ 4A- 4B- 4d	(8.ddd\L	[
.	16ccc\Jk)	>
4F\ 4A- 4B- 4d	(8.cccM\L	.
.	16bb-\Jk)	.
=36	=36	=36
4EE-/ 4E-	(8.cccM\L	.
.	16bb-\Jk)	.
4G\ 4B- 4e-	(8.bb-M\L	.
.	16aa-\Jk)	.
4G\ 4B- 4e-	(8.aa-M\L	.
.	16gg\Jk)	]]
=37	=37	=37
4AAA-/ 4AA-	[4gg^m\	.
4A-\ 4c 4f	(16gg\LL]	.
.	16ff\	>
.	16cc\	.
.	16a-\JJ	.
4A-\ 4c	16f/LL	.
.	16c/	.
.	16A-/	.
.	16F/JJ)	]]
=38	=38	=38
4BBB-/ 4BB-	[4ffM\	.
4G\ 4B- 4e-	(16ff\LL]	>
.	16ee-\	.
.	16b-\	.
.	16g\JJ	.
4G\ 4B-	16e-/LL	.
.	16B-/	.
.	16G/	.
.	16E-/JJ)	]]
=39	=39	=39
4BBB-/ 4BB-	[4dd^\	.
4F\ 4A- 4B- 4d	(16dd\LL]	>
.	16b-\	.
.	16a-\	.
.	16f\JJ	.
4F\ 4A- 4B-	20d/LL	.
.	20B-/	.
.	20A-/	.
.	20F/	.
.	20D/JJ)	]]
=40	=40	=40
(4EE-/	4E-/	.
4EEE-/)	4r	.
4r	4r	.
=41:|!	=41:|!	=41:|!
4BBB-/ 4BB-	(32d\LLL	<
.	32f\	.
.	32a-\	.
.	32b-\	.
.	32dd\	.
.	32ff\	.
.	32aa-\	.
.	32bb-\JJJ)	.
4F\ 4A- 4B- 4d	(8.ddd\L	[ >
.	16ccc\Jk)	.
4F\ 4A- 4B- 4d	(8.cccM\L	.
.	16bb-\Jk)	]]
=42	=42	=42
4EE-/ 4E-	(24g\LL	<
.	24b-\	.
.	24ee-\	.
.	24gg\	.
.	24bb-\	.
.	24eee-\JJ)	.
4G\ 4B- 4e-	(8.ggg\L	.
.	16fff\Jk)	[ >
4G\ 4B- 4e-	(8.fffM\L	.
.	16eee-\Jk)	]]
=43	=43	=43
4BBB-/ 4BB-	(32dd\LLL	<
.	32ff\	.
.	32aa-\	.
.	32bb-\	.
*	*8va	*
.	32ddd\	.
.	32fff\	.
.	32aaa-\	.
.	32bbb-\JJJ)	.
4F\ 4A- 4B- 4d	(8.dddd\L	[ >
.	16cccc\Jk)	.
4F\ 4A- 4B- 4d	(8.ccccM\L	.
.	16bbb-\Jk)	]]
=44	=44	=44
4EE-/ 4E-	4ggg:\ [4eeee-:	.
4G\ 4B- 4e-	(16ggg\LL 16eeee-]	.
.	16cccc\	.
.	16bbb-\	.
.	16ggg\JJ	.
4G\ 4B- 4e-	16eee-\LL	.
.	16bb-\	.
.	16gg\	.
.	16ee-\JJ)	.
=45	=45	=45
4EE-/ 4E-	4ggg\ [4gggg	f
4B-\ 4e- 4g	(16gggg\LL]	<
.	16ffff#X\	.
.	16ffffn\	.
.	16eeeen\JJ	.
4B-\ 4e- 4g	16eeee-X\LL	.
.	16dddd\	.
.	16cccc#X\	.
.	16ccccn\JJ)	[[
=46	=46	=46
4AA-\ 4A-	(8.dddd\L	>
.	16cccc\Jk	.
4A-\ 4c 4f	16aaa-\LL	.
.	16fff\	.
*	*X8va	*
.	16ccc\	.
.	16aa-\JJ	.
4A-\ 4c 4f	16ff\LL	.
.	16cc\	.
.	16a-\	.
.	16f\JJ)	]]
=47	=47	=47
4BBB-/ 4BB-	(32d\LLL	<
.	32f\	.
.	32a-\	.
.	32b-\	.
.	32dd\	.
.	32ff\	.
.	32aa-\	.
.	32bb-\JJJ)	.
4F\ 4A- 4B- 4d	8.ddd\L	.
.	16ccc\Jk	[ >
4F\ 4A- 4B- 4d	8.bb-M\L	.
.	16dd\Jk	.
=48	=48	=48
(4E-\ 4G 4B-	2ee-\	.
4EE-/)	.	.
4r	4r	]
=49	=49	=49
4BBB-/ 4BB-	(32d\LLL	p <
.	32f\	.
.	32a-\	.
.	32b-\	.
.	32dd\	.
.	32ff\	.
.	32aa-\	.
.	32bb-\JJJ)	.
4F\ 4A- 4B- 4d	(8.ddd\L	.
.	16ccc\Jk)	.
4F\ 4A- 4B- 4d	(8.cccM\L	[ >
.	16bb-\Jk)	]]
=50	=50	=50
4EE-/ 4E-	(24g\LL	<
.	24b-\	.
.	24ee-\	.
.	24gg\	.
.	24bb-\	.
.	24eee-\JJ)	.
4G\ 4B- 4e-	(8.ggg\L	[ >
.	16fff\Jk)	.
4G\ 4B- 4e-	(8.fffM\L	.
.	16eee-\Jk)	]]
=51	=51	=51
*	*8va	*
4BBB-/ 4BB-	(32dd\LLL	<
.	32ff\	.
.	32aa-\	.
.	32bb-\	.
.	32ddd\	.
.	32fff\	.
.	32aaa-\	.
.	32bbb-\JJJ)	.
4F\ 4A- 4B- 4d	(8.dddd\L	.
.	16cccc\Jk)	[ >
4F\ 4A- 4B- 4d	(8.ccccM\L	.
.	16bbb-\Jk)	]]
=52	=52	=52
4EE-/ 4E-	(4ggg:\ [4eeee-:	.
4G\ 4B- 4e-	16ggg\LL 16eeee-]	.
.	16cccc\	.
.	16bbb-\	.
.	16ggg\JJ	.
4G\ 4B- 4e-	16eee-\LL	.
.	16bb-\	.
.	16gg\	.
.	16ee-\JJ)	.
*	*X8va	*
=53	=53	=53
*	*8va	*
4EE-/ 4E-	(4ggg:\ [4gggg:	.
4B-\ 4e- 4g	16gggg\LL]	.
.	16ffff#X\	<
.	16ffffn\	.
.	16eeeen\JJ	.
4B-\ 4e- 4g	16eeee-X\LL	.
.	16dddd\	.
.	16cccc#X\	.
.	16ccccn\JJ)	[[
=54	=54	=54
4AA-\ 4A-	(8.dddd\L	.
.	16cccc\Jk	.
4A-\ 4c 4f	16aaa-\LL	>
.	16fff\	.
.	16ccc\	.
.	16aa-\JJ	.
*	*X8va	*
4A-\ 4c 4f	16ff\LL	.
.	16cc\	.
.	16a-\	.
.	16f\JJ)	]
=55	=55	=55
4BBB-/ 4BB-	(32d\LLL	<
.	32f\	.
.	32a-\	.
.	32b-\	.
.	32dd\	.
.	32ff\	.
.	32aa-\	.
.	32bb-\JJJ)	.
4F\ 4A- 4B- 4d	(8.ddd\L	.
.	16ccc\Jk	[ >
4F\ 4A- 4B- 4d	8.bb-M\L	.
.	16dd\Jk	]]
=56	=56	=56
(4E-\ 4G 4B-	2ee-\)	.
4EE-/)	.	.
4r;	4r;	.
==	==	==
*-	*-	*-
!!!system-decoration: [(s1,s2)]
!!!AIN: 1 empty 1 piano
!!!ENC: Berenika Jozajtis
!!!END: 2022-02-07
